X:1
T:Title
%%score { ( 1 2 ) | ( 3 4 ) }
L:1/8
M:6/8
K:F
V:1 treble nm="Grand Piano"
V:2 treble 
V:3 bass 
V:4 bass 
V:1
 z3 z z[Q:1/4=87] z/ G/ | A2 A [Ac][GB][FA] | [EG]3- [EG]2 [EG]/[FA]/ | [GB]2 [GB] [Bd][Ac][GB] | %4
[M:5/8] A-A- A3 |[M:1/8] A/B/ |[M:3/4] c2 cf ed | d2 c c2 [Fd] | [Fc]2 [FA]B z [B,EG] | %9
[M:5/8] F-F- F3 |[M:1/8] c |[M:3/4] c4- cc | dc A F2 [EG] | A2 Bc BA |[M:5/8] [EG]-[EG]- [EG]3 | %15
[M:1/8] [EG] |[M:3/4] A2 A B2 B | %17
[M:7/8] c2 c d3 [DF][Q:1/4=86][Q:1/4=84][Q:1/4=83][Q:1/4=82][Q:1/4=81][Q:1/4=79][Q:1/4=78] | %18
[M:3/4][Q:1/4=77] [CFA]2 [A,CF] [CFA]2 [B,EG][Q:1/4=75][Q:1/4=74][Q:1/4=73][Q:1/4=72][Q:1/4=70][Q:1/4=69][Q:1/4=68][Q:1/4=67] | %19
[M:5/8] [A,F]-[A,F]- [A,F]3 |] %20
V:2
 z3 z2 F | x6 | x6 | x6 |[M:5/8] x5 |[M:1/8] x |[M:3/4] x6 | x6 | z2 z .E3 |[M:5/8] x5 |[M:1/8] x | %11
[M:3/4] x6 | x6 | x6 |[M:5/8] x5 |[M:1/8] x |[M:3/4] x6 |[M:7/8] x7 |[M:3/4] x6 |[M:5/8] x5 |] %20
V:3
 z3 z2 A,/B,/ | [F,CF]2 [F,CF] [F,C]2 [F,C] | [C,C]3- [C,C]2 [C,C] | [C,C]2 [C,C] [C,C]2 [C,C] | %4
[M:5/8] [F,CF]-[F,CF]- [F,CF]3 |[M:1/8] [F,F] |[M:3/4][K:treble] [F,A,F]2 [F,A,F]D C[F,B,F] | %7
 [F,B,F]2 [F,A,F] [F,A,F]2 [B,,B,] | [C,A,]2 .[C,C]2 AC, |[M:5/8] [F,A,]-[F,A,]- [F,A,]3 | %10
[M:1/8] [F,A,F] |[M:3/4] [F,A,F]4- [F,A,F][F,A,F] | .B,2 z2 z2 | z2 z [A,F] z2 | %14
[M:5/8][K:bass] [C,C]-[C,C]- [C,C]3 |[M:1/8] [C,C] | %16
[M:3/4] [F,CF]2[K:treble] [F,CF] [G,CE]2 [G,CE] |[M:7/8] [A,CF]2 [F,A,F] [B,F]3[K:bass] z/ G/ | %18
[M:3/4] C,2 C, C,2 C, |[M:5/8] F,-F,- F,3 |] %20
V:4
 z3 z2 F, | x6 | x6 | x6 |[M:5/8] x5 |[M:1/8] z/ G,/ |[M:3/4][K:treble] z2 z .[F,F]3 | x6 | %8
 z2 z .[C,C]3 |[M:5/8] x5 |[M:1/8] x |[M:3/4] x6 | [F,F]-[F,A,F] [F,CF] [F,A,]2 [C,C] | %13
 [F,CF]2 [G,CE]C- [G,CE][F,CF] |[M:5/8][K:bass] x5 |[M:1/8] x |[M:3/4] x2[K:treble] x4 | %17
[M:7/8] z z z z z2[K:bass] B,, |[M:3/4] x6 |[M:5/8] x5 |] %20

